imges/robothead.svg

<svg xmlns="http://www.w3.org/2000/svg" viewBox="0 0 256 256" enable-background="new 0 0 256 256"><style type="text/css">.st0{fill:#4F9AD4;}</style><path class="st0" d="M43 109.8s-1.8-4.4-1.8-9.9l1.8-9.9c-.3 0-36.2 9.9-36.2 9.9s36 9.9 36.2 9.9zm170-19.9s1.8 4.4 1.8 9.9l-1.8 9.9c.3 0 36.2-9.9 36.2-9.9s-36-9.9-36.2-9.9z"/><ellipse class="st0" cx="90.9" cy="99.2" rx="10.8" ry="11.2"/><path class="st0" d="M194.2 85.4c1.4 0 2.5 1.2 2.5 2.6v23.7c0 1.4-1.1 2.6-2.5 2.6h-132.4c-1.4 0-2.5-1.2-2.5-2.6v-23.7c0-1.5 1.1-2.6 2.5-2.6h132.4m0-13.5h-132.4c-8.6 0-15.5 7.2-15.5 16.1v23.7c0 8.9 7 16.1 15.5 16.1h132.4c8.6 0 15.5-7.2 15.5-16.1v-23.7c0-8.9-6.9-16.1-15.5-16.1zm-67.2 96.4c-19.6 0-36.2 30.7-36.2 67.1 0 4.1.2 8.2.6 12.2 10.1 3.3 22.3 5.2 35.5 5.2s25.5-2 35.5-5.2c.4-4 .6-8 .6-12.2.2-36.4-16.3-67.1-36-67.1zm-21.8 65.4c0 2.4-1.9 4.4-4.3 4.4s-4.3-2-4.3-4.4v-15.4c0-2.4 1.9-4.4 4.3-4.4s4.3 2 4.3 4.4v15.4zm17.2 0c0 2.4-1.9 4.4-4.3 4.4s-4.3-2-4.3-4.4v-15.4c0-2.4 1.9-4.4 4.3-4.4s4.3 2 4.3 4.4v15.4zm17.2 0c0 2.4-1.9 4.4-4.3 4.4s-4.3-2-4.3-4.4v-15.4c0-2.4 1.9-4.4 4.3-4.4s4.3 2 4.3 4.4v15.4zm17.2 0c0 2.4-1.9 4.4-4.3 4.4s-4.3-2-4.3-4.4v-15.4c0-2.4 1.9-4.4 4.3-4.4s4.3 2 4.3 4.4v15.4zm-91.4-117.5v11.5h89.4c1.7 0 3 1.4 3 3.1 0 1.7-1.3 3.1-3 3.1h-89.4v90.2c0 7.7 6.6 14.6 17.2 19.8-.2-2.8-.3-5.7-.3-8.6 0-42.6 19.6-76 44.7-76s44.7 33.4 44.7 76c0 2.9-.1 5.8-.3 8.6 10.6-5.1 17.2-12.1 17.2-19.8v-108h-123.2zm61.6-58c-2.2 0-3.9-1.8-3.9-4s1.7-4 3.9-4h61.2c-.7-2.2-1.5-4.4-2.4-6.5h-36.4c-3.6 0-6.5-3-6.5-6.7s2.9-6.7 6.5-6.7h28.9c-11.8-16.7-30.3-27.1-51.3-27.1-32.8 0-59.9 25.4-64 60.1h128c-.2-1.7-.5-3.4-.8-5.1h-63.2zm4.5-28.4c3.7 0 6.8 3.1 6.8 7s-3 7-6.8 7c-3.7 0-6.8-3.1-6.8-7s3.1-7 6.8-7z"/></svg>

<?xml version="1.0" encoding="utf-8"?>
<!-- Generator: Adobe Illustrator 18.1.1, SVG Export Plug-In . SVG Version: 6.00 Build 0)  -->
<!DOCTYPE svg PUBLIC "-//W3C//DTD SVG 1.1//EN" "http://www.w3.org/Graphics/SVG/1.1/DTD/svg11.dtd">
<svg version="1.1" id="Layer_1" xmlns="http://www.w3.org/2000/svg" xmlns:xlink="http://www.w3.org/1999/xlink" x="0px" y="0px"
	 viewBox="0 0 256 256" style="enable-background:new 0 0 256 256;" xml:space="preserve">
<style type="text/css">
	.st0{fill:#4F9AD4;}
</style>
<path class="st0" d="M43,109.8c0,0-1.8-4.4-1.8-9.9c0-5.5,1.8-9.9,1.8-9.9l0,0l0,0h0c-0.3,0-36.2,9.9-36.2,9.9S42.8,109.8,43,109.8
	L43,109.8z"/>
<path class="st0" d="M213,89.9c0,0,1.8,4.4,1.8,9.9c0,5.5-1.8,9.9-1.8,9.9l0,0l0,0h0c0.3,0,36.2-9.9,36.2-9.9S213.2,89.9,213,89.9
	L213,89.9z"/>
<ellipse class="st0" cx="90.9" cy="99.2" rx="10.8" ry="11.2"/>
<path class="st0" d="M194.2,85.4c1.4,0,2.5,1.2,2.5,2.6v23.7c0,1.4-1.1,2.6-2.5,2.6H61.8c-1.4,0-2.5-1.2-2.5-2.6V88
	c0-1.5,1.1-2.6,2.5-2.6H194.2 M194.2,71.9H61.8c-8.6,0-15.5,7.2-15.5,16.1v23.7c0,8.9,7,16.1,15.5,16.1h132.4
	c8.6,0,15.5-7.2,15.5-16.1V88C209.7,79.1,202.8,71.9,194.2,71.9L194.2,71.9z"/>
<path class="st0" d="M127,168.3c-19.6,0-36.2,30.7-36.2,67.1c0,4.1,0.2,8.2,0.6,12.2c10.1,3.3,22.3,5.2,35.5,5.2s25.5-2,35.5-5.2
	c0.4-4,0.6-8,0.6-12.2C163.2,199,146.7,168.3,127,168.3z M105.2,233.7c0,2.4-1.9,4.4-4.3,4.4c-2.4,0-4.3-2-4.3-4.4v-15.4
	c0-2.4,1.9-4.4,4.3-4.4c2.4,0,4.3,2,4.3,4.4V233.7z M122.4,233.7c0,2.4-1.9,4.4-4.3,4.4c-2.4,0-4.3-2-4.3-4.4v-15.4
	c0-2.4,1.9-4.4,4.3-4.4c2.4,0,4.3,2,4.3,4.4V233.7z M139.6,233.7c0,2.4-1.9,4.4-4.3,4.4c-2.4,0-4.3-2-4.3-4.4v-15.4
	c0-2.4,1.9-4.4,4.3-4.4c2.4,0,4.3,2,4.3,4.4V233.7z M156.8,233.7c0,2.4-1.9,4.4-4.3,4.4c-2.4,0-4.3-2-4.3-4.4v-15.4
	c0-2.4,1.9-4.4,4.3-4.4c2.4,0,4.3,2,4.3,4.4V233.7z"/>
<path class="st0" d="M65.4,116.2v11.5h89.4c1.7,0,3,1.4,3,3.1c0,1.7-1.3,3.1-3,3.1H65.4v90.2c0,7.7,6.6,14.6,17.2,19.8
	c-0.2-2.8-0.3-5.7-0.3-8.6c0-42.6,19.6-76,44.7-76c25.1,0,44.7,33.4,44.7,76c0,2.9-0.1,5.8-0.3,8.6c10.6-5.1,17.2-12.1,17.2-19.8
	v-108H65.4z"/>
<path class="st0" d="M127,58.2c-2.2,0-3.9-1.8-3.9-4c0-2.2,1.7-4,3.9-4h61.2c-0.7-2.2-1.5-4.4-2.4-6.5h-36.4c-3.6,0-6.5-3-6.5-6.7
	s2.9-6.7,6.5-6.7h28.9C166.5,13.6,148,3.2,127,3.2c-32.8,0-59.9,25.4-64,60.1H191c-0.2-1.7-0.5-3.4-0.8-5.1L127,58.2L127,58.2z
	 M131.5,29.8c3.7,0,6.8,3.1,6.8,7c0,3.9-3,7-6.8,7c-3.7,0-6.8-3.1-6.8-7C124.7,32.9,127.8,29.8,131.5,29.8z"/>
<g>
</g>
<g>
</g>
<g>
</g>
<g>
</g>
<g>
</g>
<g>
</g>
</svg>
